X:1
T:Fantasía nº.5 Z.736
T:11-06-1680
T:H. Purcell
T:©Francisco Javier Meca Guevara
T:©Francisco Javier Meca Guevara
T:©Francisco Javier Meca Guevara
T:©Francisco Javier Meca Guevara
Z:©Francisco Javier Meca Guevara
%%score { ( 1 2 ) | ( 3 4 ) }
L:1/8
M:4/2
K:Bb
V:1 treble nm="Piano" snm="Pno."
V:2 treble 
V:3 bass 
V:4 bass 
V:1
 B6 c2 d2 F2 _A4- | A4 G2 F2 =E4 _E4 | D4 _D4 C8- | C2 C2 D2 D2 E4 =E2 E2 | F4 G6 G2 A2 A2 | %5
 B4 =B2 B2 c6 c2 | d2 d2 e4 =e2 e2 f4 | B6 B2 c2 c2 _d4 | d2 d2 e4 A4 B4- | B4 A4 B8 || z16 | z16 | %12
 z16 | B6 A2 G4 z FGA | BAGF =EGAB c6 B2 | A4 z FGA BAGF EGAB | c2 B2 A4 Gd=ef gfed | %17
 =ecde f4- f2 _e2 d4 | z cd=e f_edc Bd=ef gfed | ^c2 d4 c2 d6 =c2 | =B4 z GAB c_BAG FABc | %21
 dcBA G2 e4 d2 c4 | z Bcd edcB _AGAB GGAB | cBcd edcB cBAG FABc | dc B3 G_AB cB_dc BA=GF | %25
 =E2 F4 E2 F4 z2 c2 | f6 =e2 A6 d2 | =B6 =e2 ^G3 G A2 B2 | c2 ^c2 d2 =e2 f4 z2 A2 | %29
 c6 B2 A2 d3 cBA | B8- B2 cB AG^F=E | ^F4 z2 d=e fdBd cB/A/ B/c/B/A/ | G/A/B B>c A4 z8 | %33
 D2 d2 cAB^F G2 =F2 =E2 ^F2 | G2 c4 =BA ^G2 A4 G2 | A2 F2 =E2 z2 fgaf d=e/f/ g/a/g/f/ | %36
 =ed^c=B Ad/e/ e>d d2 z2 f2 _b2 | afgd e2 d2 c2 G2 g2 ec | d=BGd e4 d2 c4 _B2 | %39
 A4 G2 ga bgeg fe/d/ e/f/e/d/ | cA F2 z4 z2 cd ecAc | Ffec d2 c3 B B4 A2 | B16 |] %43
V:2
 z4 F4- F6 E2 | D4 _D4 C8- | C2 B,2 B,6 B,2 A,2 G,2 | _A,4 =A,6 A,2 B,2 B,2 | C4 D4 E6 E2 | %5
 D4 G6 G2 F4- | F2 F2 E4 _A4 A4- | A2 _A2 G2 F2 _G4 =G2 G2 | _A4 =A3 G F4[I:staff +1] B,4 | %9
[I:staff -1] C4[I:staff +1] F,4 F,8 ||[I:staff -1] z16 | z8 E6 D2 | C4 z B,CD EDCB, A,CDE | %13
 FD=EF G2 F4 _E4 D2 | DC B,4[I:staff +1] A,2 G,4 F,4 | %15
[I:staff -1] z[I:staff +1] A,B,C DCB,A, G,4[I:staff -1] z4 | D6 C2 =B,4 z[I:staff +1] G,A,B, | %17
 CB,A,G, F,A,[I:staff -1]CC D2 c2 =B C2[I:staff +1] =B,/A,/ | %18
 G,2[I:staff -1] c3 c F3 F =E2[I:staff +1] D,2[I:staff -1] G2- | GG F2 =E2 F4 E2 D4 | %20
 z[I:staff +1] =B,CD =EDCB, A,CDE[I:staff -1] F4- | FDEF GF[I:staff +1]ED[I:staff -1] C2 F4 E2 | %22
 x D x F x6 D2 E2 x2 | G2 F2 E4 z[I:staff +1] C,D,=E,[I:staff -1] F[I:staff +1] E,D,C, | %24
 B,,D,E,G,[I:staff -1] GF E2- E_GFE _DCED | C3 B, _DCB,>C A,2 C2 F4- | %26
 F2 D2[I:staff +1] A,6[I:staff -1] ^C2 D4- | D2 =B,2 G,2 G2 =E6 E2- | ED =E2 F2 G2 A4 z2 F2 | %29
 A4 z2 D2 F6 =E2 | D4 G6 AG ^F=ED^C | D4 z4[I:staff +1] B,2[I:staff -1] B2 A=FGD | %32
 E2 D2 C4 z4 z2 AB | cAGB A3/2 G/ ^F/G/F/=E/ D3 D C2 c2 | BGA=E F4 E4 D4 | %35
 ^C8[I:staff +1] A,2[I:staff -1] A2 Fd=e=B | ^cAGF =ED[I:staff +1] ^C2[I:staff -1] D2 DE fd_Bd | %37
 cB/A/ B/c/B/A/ G2 z2 z2 z2[I:staff +1] C2[I:staff -1] c2 | =BG d4 c2 _B4 A2 G2- | %39
 G2 ^FG/A/ BGeg =fe/d/ e/f/e/d/ c=FBc |[I:staff +1] A,2[I:staff -1] z2 z4 z2 AB cAFA | %41
 D2[I:staff +1] C3 B, A,3[I:staff -1] FED C4 | D16 |] %43
V:3
 z4 D4- D6[I:staff -1] E2 | F2[I:staff +1] F,2 B,2 _A,2 G,4 F,4- | %2
 F,2 F,2 F,4 G,6[I:staff -1] G,2 |[I:staff +1] F,8 C,2[I:staff -1] C2[I:staff +1] G,2 G,2 | %4
 A,4 =B,4 C6 C2 |[I:staff -1] D2 D2 E4 E6 E2 | D4 G6 G2 F4- | F2 F2 E2[I:staff +1] _D2 C6 B,2 | %8
 _A,2 G,2 F,2 C2[I:staff -1] _D4[I:staff +1] =D4 |[I:staff -1] E4 E3 F D8 || %10
[I:staff +1] B,6 A,2 G,4 z F,G,A, | B,A,G,F, E,G,A,B, CB,A,G, A,2 B,2- | %12
 B,2 A,G, F,4 G,[I:staff -1] G/F/ED C A,B,C | D4[I:staff +1] C4- CG,A,B,[I:staff -1] C2 DC | %14
 B,3[I:staff +1] A, G,[I:staff -1]=E F4 E2 F4- | F2 E2 D4[I:staff +1] z B,CD EDCB, | %16
 A,A,B,C[I:staff -1] D G2 ^F G=F=E[I:staff +1]D C2 D2 | %17
 G,2 C4[I:staff -1] B,2 B,4[I:staff +1] z G,A,[I:staff -1]=B, | %18
[I:staff +1] CB,A,G, F,A,B,C[I:staff -1] D3 c BAGF | %19
[I:staff +1] =E,2 F,G, A,2[I:staff -1] A4 G2 ^F4 | %20
[I:staff +1] z D=EF GFED CEFG[I:staff -1] A[I:staff +1]GFE | D6 CB, A,2 B,3 A,/G,/ A,2 | %22
[I:staff -1] B,2[I:staff +1] _A,4 G,2 F,4 z E,F,G, | %23
 _A,G,=A,=B, C_B,A,G, A,[I:staff -1]GF=E[I:staff +1] D,[I:staff -1] FGA | %24
 B_AGF[I:staff +1] E,E,F,G, _A,3 G, F,2 B,2- | B,2 _A,2 G,4 F,4 z2 F2 | %26
 D2 A,2[I:staff -1] A2 G2 F6[I:staff +1] F2 | D6 =B,2 C2 B,2 A,2 G,2 | %28
 F,2 =E,2 D,2 A,2 D2[I:staff -1] F2 A4- | A2 G2 F4- F[I:staff +1]=E,D,C, B,,A,G,^F, | %30
 G,[I:staff -1]A,B,C D6[I:staff +1] ED CB,A,G, | A,4 z4 z8 | %32
 z4 z2[I:staff -1] AB cAFA GF/=E/ F/G/F/_E/ | %33
 DC[I:staff +1] B,[I:staff -1] G2 ^F/=E/[I:staff +1] DC[I:staff -1] B,2[I:staff +1] A,2 G,[I:staff -1] C2[I:staff +1] A, | %34
[I:staff -1] D2[I:staff +1] z2[I:staff -1] D=E FD[I:staff +1]=B,D CB,/A,/ B,4 | %35
 A,4 A,2[I:staff -1] B2 Fd=e[I:staff +1]A,[I:staff -1] D2[I:staff +1] B,,[I:staff -1]G- | %36
 G[I:staff +1]F=ED ^C=B,A,G, F,D, D2 =CA,_B,G, | %37
 F2 D,2[I:staff -1] GA BG EG FE/D/[I:staff +1] E/F/E/D/ C/D/E | %38
 D3 C =B,A, G,2[I:staff -1] G4 D3[I:staff +1] _B, |[I:staff -1] ED/C/[I:staff +1] D3 C B,2 z8 | %40
 z2[I:staff -1] AB cAF_A G/A/G/F/[I:staff +1] E,D, C,4- | %41
 C,B,A,G, F,[I:staff -1]FE[I:staff +1]C D2 CB, F,4 | F,16 |] %43
V:4
 B,,2 z2 z4 z8 | B,,12 A,,4- | A,,2 A,,2 B,,4 =E,6 E,2 | F,8 F,,8- | F,,6 F,2 E,2 D,2 C,4 | %5
 G,,6 G,,2 A,,2 A,,2 B,,4 | =B,,2 B,,2 C,6 C,2 _D,2 D,2 | =D,2 D,2 E,8 =E,2 E,2 | F,8 F,,8- | %9
 F,,8 B,,8 || z16 | z8 z4 F,4- | F,2 E,2 D,4 z C,D,E, F,E,D,C, | %13
 B,,A,,G,,F, =E,2 F,2 C,3 B,, A,,2 B,,A,, | G,,4 C,6 B,,2 A,,4 | %15
 z F,G,A, B,A,G,F, E,G,A,B, CB,A,G, | ^F,2 G,2 D,4 G,,2 G,F, =E,2 D,2 | %17
 C,3 B,, A,,2 G,,2 F,,4 G,,2 G,F, | =E,D,C,B,, A,,4 G,4- G,A,,B,,G,, | A,,6 A,,2 B,,6 A,,2 | %20
 G,,4 z[I:staff -1] =EFG AGF=E DFGA |[I:staff +1] B,A,G,F, _E,4 F,8 | %22
 B,,3 B,, C,D,E,G,, _A,,2 B,,2 E,4- | E,2 D,2 C,4 z A,,B,,C, D,C,B,,A,, | %24
 G,,B,,C,D, E,D,C,B,, _A,,2 =A,,2 B,,4 | C,4 C,4 F,,4 z4 | z2 F,2 ^C,6 A,,2 D,4- | %27
 D,2 F,2 =E,6 D,2 C,2 =B,,2 | A,,2 G,,2 F,,2 =E,2 D,2 D,2 F,4- | F,2 =E,2 D,4- D,C,B,,A,, G,,4- | %30
 G,,^F,,G,,A,, B,,A,,B,,G,, D,8 | D,8 z8 | z4 F,,2 F,2 =E,C,D,A,, B,,2 A,,G,, | %33
 ^F,,2 G,,2 D,4 G,,2 A,,B,, C,A,,F,,A,, | G,,/G,/F,/=E,/ F,/G,/F,/E,/ D,4 E,8 | %35
 A,,2 A,2 G,=E,F,^C, D,2 =C,2 B,,2 G,,2 | A,,8 B,,2 _B,2 A,F,G,D, | %37
 F,2 B,,2 C,2 G,,2 A,,2 =B,,2 C4 | G,6 G,A, _B,G,=E,G, ^F,E,/D,/ _E,/=F,/E,/D,/ | %39
 C,/D,/D, D,D, G,E, E,2 D,B,,C,G,, A,,B,,G,,E, | F,2 F,G, A,F,D,F, E,/F,/E,/D,/ C,B,, F,,4- | %41
 F,,16 | B,,16 |] %43

